images/apple-icon.svg

<svg width="120" height="40" viewBox="0 0 120 40" fill="none" xmlns="http://www.w3.org/2000/svg">
<g clip-path="url(#clip0_2129_11174)">
<path d="M113 0.5H7C3.41015 0.5 0.5 3.41015 0.5 7V33C0.5 36.5899 3.41015 39.5 7 39.5H113C116.59 39.5 119.5 36.5899 119.5 33V7C119.5 3.41015 116.59 0.5 113 0.5Z" fill="white" stroke="#000001"/>
<path d="M24.9999 19.8994C24.9999 16.9994 27.2999 15.5994 27.4999 15.5994C26.1999 13.5994 24.0999 13.3994 23.2999 13.3994C21.5999 13.1994 19.8999 14.3994 18.9999 14.3994C18.0999 14.3994 16.6999 13.3994 15.1999 13.3994C13.2999 13.3994 11.4999 14.4994 10.4999 16.1994C8.49994 19.6994 9.99994 24.7994 11.8999 27.5994C12.8999 28.9994 13.9999 30.4994 15.4999 30.4994C16.8999 30.3994 17.4999 29.5994 19.1999 29.5994C20.8999 29.5994 21.3999 30.4994 22.8999 30.4994C24.3999 30.4994 25.3999 29.0994 26.3999 27.6994C27.4999 26.0994 27.9999 24.5994 27.9999 24.4994C27.9999 24.4994 24.9999 23.2994 24.9999 19.8994Z" fill="#000001"/>
<path d="M22.1999 11.5004C22.9999 10.5004 23.4999 9.20039 23.3999 7.90039C22.2999 7.90039 20.8999 8.70039 20.0999 9.60039C19.3999 10.4004 18.6999 11.8004 18.8999 13.1004C20.0999 13.2004 21.2999 12.4004 22.1999 11.5004Z" fill="#000001"/>
<path d="M42.3 27.0996H37.6L36.5 30.4996H34.5L39 18.0996H41L45.5 30.4996H43.5L42.3 27.0996ZM38.1 25.5996H41.9L40 20.0996H39.9L38.1 25.5996Z" fill="#000001"/>
<path d="M55.2 26.0003C55.2 28.8003 53.7 30.6003 51.4 30.6003C50.1 30.6003 49.0999 30.0003 48.5999 29.0003V33.5003H46.7V21.5003H48.5V23.0003C49 22.0003 50.1 21.4003 51.4 21.4003C53.6 21.3003 55.2 23.2003 55.2 26.0003ZM53.2 26.0003C53.2 24.2003 52.2999 23.0003 50.7999 23.0003C49.3999 23.0003 48.4 24.2003 48.4 26.0003C48.4 27.8003 49.3999 29.0003 50.7999 29.0003C52.2999 29.0003 53.2 27.8003 53.2 26.0003Z" fill="#000001"/>
<path d="M65.0996 26.0003C65.0996 28.8003 63.5996 30.6003 61.2996 30.6003C59.9996 30.6003 58.9996 30.0003 58.4996 29.0003V33.5003H56.5996V21.5003H58.3996V23.0003C58.8996 22.0003 59.9996 21.4003 61.2996 21.4003C63.5996 21.3003 65.0996 23.2003 65.0996 26.0003ZM63.1996 26.0003C63.1996 24.2003 62.2996 23.0003 60.7996 23.0003C59.3996 23.0003 58.3996 24.2003 58.3996 26.0003C58.3996 27.8003 59.3996 29.0003 60.7996 29.0003C62.2996 29.0003 63.1996 27.8003 63.1996 26.0003Z" fill="#000001"/>
<path d="M71.7 27.0004C71.8 28.2004 73 29.0004 74.7 29.0004C76.3 29.0004 77.4 28.2004 77.4 27.1004C77.4 26.1004 76.7 25.6004 75.1 25.2004L73.5 24.8004C71.2 24.2004 70.2 23.2004 70.2 21.5004C70.2 19.4004 72.1 17.9004 74.7 17.9004C77.3 17.9004 79.1 19.4004 79.2 21.5004H77.3C77.2 20.3004 76.2 19.5004 74.7 19.5004C73.2 19.5004 72.2 20.3004 72.2 21.4004C72.2 22.3004 72.9 22.8004 74.5 23.2004L75.9 23.5004C78.4 24.1004 79.5 25.1004 79.5 26.9004C79.5 29.2004 77.7 30.7004 74.7 30.7004C71.9 30.7004 70.1 29.3004 70 27.0004H71.7Z" fill="#000001"/>
<path d="M83.3 19.3008V21.4008H85V22.9008H83.3V27.9008C83.3 28.7008 83.6 29.0008 84.4 29.0008C84.6 29.0008 84.9 29.0008 85 29.0008V30.5008C84.8 30.6008 84.4 30.6008 84 30.6008C82.2 30.6008 81.5 29.9008 81.5 28.2008V23.0008H80.2V21.5008H81.5V19.4008H83.3V19.3008Z" fill="#000001"/>
<path d="M86.0996 26.0004C86.0996 23.2004 87.7996 21.4004 90.3996 21.4004C92.9996 21.4004 94.6996 23.2004 94.6996 26.0004C94.6996 28.9004 92.9996 30.6004 90.3996 30.6004C87.6996 30.6004 86.0996 28.8004 86.0996 26.0004ZM92.7996 26.0004C92.7996 24.0004 91.8996 22.9004 90.3996 22.9004C88.8996 22.9004 87.9996 24.0004 87.9996 26.0004C87.9996 28.0004 88.8996 29.1004 90.3996 29.1004C91.8996 29.1004 92.7996 27.9004 92.7996 26.0004Z" fill="#000001"/>
<path d="M96.2 21.4004H98V23.0004C98.3 22.0004 99.1 21.4004 100.2 21.4004C100.5 21.4004 100.7 21.4004 100.8 21.5004V23.2004C100.7 23.1004 100.3 23.1004 100 23.1004C98.8 23.1004 98.1 23.9004 98.1 25.2004V30.6004H96.2V21.4004Z" fill="#000001"/>
<path d="M109.4 27.8008C109.1 29.4008 107.5 30.6008 105.5 30.6008C102.9 30.6008 101.2 28.8008 101.2 26.0008C101.2 23.2008 102.8 21.3008 105.4 21.3008C107.9 21.3008 109.5 23.0008 109.5 25.8008V26.4008H103.1V26.5008C103.1 28.0008 104.1 29.1008 105.5 29.1008C106.5 29.1008 107.3 28.6008 107.6 27.8008H109.4ZM103.1 25.1008H107.6C107.6 23.7008 106.7 22.8008 105.4 22.8008C104.1 22.8008 103.2 23.8008 103.1 25.1008Z" fill="#000001"/>
<path d="M37.7996 8.69922C39.5996 8.69922 40.5996 9.79922 40.5996 11.6992C40.5996 13.5992 39.5996 14.6992 37.7996 14.6992H35.5996V8.69922H37.7996ZM36.5996 13.8992H37.6996C38.8996 13.8992 39.6996 13.0992 39.6996 11.7992C39.6996 10.4992 38.9996 9.69922 37.6996 9.69922H36.5996V13.8992Z" fill="#000001"/>
<path d="M41.7 12.3996C41.7 10.8996 42.4999 10.0996 43.7999 10.0996C45.0999 10.0996 45.9 10.9996 45.9 12.3996C45.9 13.8996 45.0999 14.6996 43.7999 14.6996C42.4999 14.7996 41.7 13.8996 41.7 12.3996ZM45 12.3996C45 11.3996 44.5999 10.8996 43.7999 10.8996C42.9999 10.8996 42.5999 11.4996 42.5999 12.3996C42.5999 13.3996 42.9999 13.9996 43.7999 13.9996C44.5999 13.9996 45 13.3996 45 12.3996Z" fill="#000001"/>
<path d="M51.5999 14.6992H50.7L49.7999 11.3992H49.7L48.7999 14.6992H47.9L46.7 10.1992H47.5999L48.4 13.5992H48.5L49.4 10.1992H50.2999L51.2 13.5992H51.2999L52.0999 10.1992H53L51.5999 14.6992Z" fill="#000001"/>
<path d="M53.9004 10.1996H54.8004V10.8996H54.9004C55.1004 10.3996 55.6004 10.0996 56.2004 10.0996C57.2004 10.0996 57.8004 10.6996 57.8004 11.7996V14.6996H56.9004V11.9996C56.9004 11.2996 56.6004 10.8996 55.9004 10.8996C55.2004 10.8996 54.8004 11.2996 54.8004 11.9996V14.5996H53.9004V10.1996Z" fill="#000001"/>
<path d="M59.0996 8.40039H59.9996V14.7004H59.0996V8.40039Z" fill="#000001"/>
<path d="M61.2 12.3996C61.2 10.8996 61.9999 10.0996 63.2999 10.0996C64.5999 10.0996 65.4 10.9996 65.4 12.3996C65.4 13.8996 64.5999 14.6996 63.2999 14.6996C61.9999 14.7996 61.2 13.8996 61.2 12.3996ZM64.5999 12.3996C64.5999 11.3996 64.2 10.8996 63.4 10.8996C62.6 10.8996 62.2 11.4996 62.2 12.3996C62.2 13.3996 62.6 13.9996 63.4 13.9996C64.1 13.9996 64.5999 13.3996 64.5999 12.3996Z" fill="#000001"/>
<path d="M66.4004 13.3996C66.4004 12.5996 67.0004 12.0996 68.1004 12.0996L69.3004 11.9996V11.5996C69.3004 11.0996 69.0004 10.8996 68.4004 10.8996C67.9004 10.8996 67.6004 11.0996 67.5004 11.3996H66.6004C66.7004 10.5996 67.4004 10.0996 68.4004 10.0996C69.5004 10.0996 70.2004 10.6996 70.2004 11.5996V14.6996H69.3004V14.0996H69.2004C68.9004 14.5996 68.4004 14.7996 67.8004 14.7996C67.0004 14.7996 66.4004 14.1996 66.4004 13.3996ZM69.3004 12.9996V12.5996L68.2004 12.6996C67.6004 12.6996 67.3004 12.9996 67.3004 13.2996C67.3004 13.6996 67.7004 13.8996 68.1004 13.8996C68.8004 13.9996 69.3004 13.5996 69.3004 12.9996Z" fill="#000001"/>
<path d="M71.3 12.4004C71.3 11.0004 72 10.1004 73.2 10.1004C73.8 10.1004 74.3 10.4004 74.6 10.9004H74.7V8.40039H75.6V14.7004H74.7V14.0004H74.6C74.3 14.5004 73.8 14.8004 73.2 14.8004C72.1 14.8004 71.3 13.9004 71.3 12.4004ZM72.3 12.4004C72.3 13.4004 72.8 13.9004 73.5 13.9004C74.2 13.9004 74.7 13.3004 74.7 12.4004C74.7 11.5004 74.2 10.9004 73.5 10.9004C72.7 10.9004 72.3 11.5004 72.3 12.4004Z" fill="#000001"/>
<path d="M79.2 12.3996C79.2 10.8996 80 10.0996 81.3 10.0996C82.6 10.0996 83.4 10.9996 83.4 12.3996C83.4 13.8996 82.6 14.6996 81.3 14.6996C80 14.7996 79.2 13.8996 79.2 12.3996ZM82.6 12.3996C82.6 11.3996 82.2 10.8996 81.4 10.8996C80.6 10.8996 80.2 11.4996 80.2 12.3996C80.2 13.3996 80.6 13.9996 81.4 13.9996C82.1 13.9996 82.6 13.3996 82.6 12.3996Z" fill="#000001"/>
<path d="M84.7 10.1996H85.6V10.8996H85.7C85.9 10.3996 86.4 10.0996 87 10.0996C88 10.0996 88.6 10.6996 88.6 11.7996V14.6996H87.7V11.9996C87.7 11.2996 87.4 10.8996 86.7 10.8996C86 10.8996 85.6 11.2996 85.6 11.9996V14.5996H84.7V10.1996Z" fill="#000001"/>
<path d="M93.5 9.09961V10.1996H94.5V10.9996H93.5V13.2996C93.5 13.7996 93.7 13.9996 94.1 13.9996C94.2 13.9996 94.3 13.9996 94.4 13.9996V14.6996C94.3 14.6996 94.1 14.6996 93.9 14.6996C92.9 14.6996 92.5 14.3996 92.5 13.4996V10.9996H91.8V10.2996H92.5V9.09961H93.5Z" fill="#000001"/>
<path d="M95.7 8.40039H96.6V10.9004H96.7C96.9 10.4004 97.4 10.1004 98.1 10.1004C99.1 10.1004 99.7 10.7004 99.7 11.8004V14.7004H98.8V12.0004C98.8 11.3004 98.5 10.9004 97.8 10.9004C97.1 10.9004 96.7 11.4004 96.7 12.0004V14.6004H95.8V8.40039H95.7Z" fill="#000001"/>
<path d="M104.8 13.4996C104.6 14.2996 103.9 14.7996 102.8 14.7996C101.5 14.7996 100.7 13.8996 100.7 12.4996C100.7 11.0996 101.5 10.0996 102.8 10.0996C104.1 10.0996 104.8 10.9996 104.8 12.3996V12.6996H101.6C101.6 13.4996 102.1 13.9996 102.8 13.9996C103.3 13.9996 103.7 13.7996 103.9 13.4996H104.8ZM101.6 11.9996H103.9C103.9 11.2996 103.4 10.7996 102.8 10.7996C102.1 10.8996 101.7 11.2996 101.6 11.9996Z" fill="#000001"/>
</g>
<defs>
<clipPath id="clip0_2129_11174">
<rect width="120" height="40" fill="white"/>
</clipPath>
</defs>
</svg>

<svg width="120" height="40" fill="none" xmlns="http://www.w3.org/2000/svg"><g clip-path="url(#clip0_2129_11174)"><path d="M113 .5H7A6.5 6.5 0 00.5 7v26A6.5 6.5 0 007 39.5h106a6.5 6.5 0 006.5-6.5V7A6.5 6.5 0 00113 .5z" fill="#fff" stroke="#000001"/><path d="M25 19.9c0-2.9 2.3-4.3 2.5-4.3-1.3-2-3.4-2.2-4.2-2.2-1.7-.2-3.4 1-4.3 1-.9 0-2.3-1-3.8-1-1.9 0-3.7 1.1-4.7 2.8-2 3.5-.5 8.6 1.4 11.4 1 1.4 2.1 2.9 3.6 2.9 1.4-.1 2-.9 3.7-.9 1.7 0 2.2.9 3.7.9s2.5-1.4 3.5-2.8c1.1-1.6 1.6-3.1 1.6-3.2 0 0-3-1.2-3-4.6zm-2.8-8.4c.8-1 1.3-2.3 1.2-3.6-1.1 0-2.5.8-3.3 1.7-.7.8-1.4 2.2-1.2 3.5 1.2.1 2.4-.7 3.3-1.6zm20.1 15.6h-4.7l-1.1 3.4h-2L39 18.1h2l4.5 12.4h-2l-1.2-3.4zm-4.2-1.5h3.8L40 20.1h-.1l-1.8 5.5zm17.1.4c0 2.8-1.5 4.6-3.8 4.6-1.3 0-2.3-.6-2.8-1.6v4.5h-1.9v-12h1.8V23c.5-1 1.6-1.6 2.9-1.6 2.2-.1 3.8 1.8 3.8 4.6zm-2 0c0-1.8-.9-3-2.4-3-1.4 0-2.4 1.2-2.4 3s1 3 2.4 3c1.5 0 2.4-1.2 2.4-3zm11.9 0c0 2.8-1.5 4.6-3.8 4.6-1.3 0-2.3-.6-2.8-1.6v4.5h-1.9v-12h1.8V23c.5-1 1.6-1.6 2.9-1.6 2.3-.1 3.8 1.8 3.8 4.6zm-1.9 0c0-1.8-.9-3-2.4-3-1.4 0-2.4 1.2-2.4 3s1 3 2.4 3c1.5 0 2.4-1.2 2.4-3zm8.5 1c.1 1.2 1.3 2 3 2 1.6 0 2.7-.8 2.7-1.9 0-1-.7-1.5-2.3-1.9l-1.6-.4c-2.3-.6-3.3-1.6-3.3-3.3 0-2.1 1.9-3.6 4.5-3.6s4.4 1.5 4.5 3.6h-1.9c-.1-1.2-1.1-2-2.6-2s-2.5.8-2.5 1.9c0 .9.7 1.4 2.3 1.8l1.4.3c2.5.6 3.6 1.6 3.6 3.4 0 2.3-1.8 3.8-4.8 3.8-2.8 0-4.6-1.4-4.7-3.7h1.7zm11.6-7.7v2.1H85v1.5h-1.7v5c0 .8.3 1.1 1.1 1.1h.6v1.5c-.2.1-.6.1-1 .1-1.8 0-2.5-.7-2.5-2.4V23h-1.3v-1.5h1.3v-2.1h1.8v-.1zm2.8 6.7c0-2.8 1.7-4.6 4.3-4.6 2.6 0 4.3 1.8 4.3 4.6 0 2.9-1.7 4.6-4.3 4.6-2.7 0-4.3-1.8-4.3-4.6zm6.7 0c0-2-.9-3.1-2.4-3.1S88 24 88 26s.9 3.1 2.4 3.1 2.4-1.2 2.4-3.1zm3.4-4.6H98V23c.3-1 1.1-1.6 2.2-1.6.3 0 .5 0 .6.1v1.7c-.1-.1-.5-.1-.8-.1-1.2 0-1.9.8-1.9 2.1v5.4h-1.9v-9.2zm13.2 6.4c-.3 1.6-1.9 2.8-3.9 2.8-2.6 0-4.3-1.8-4.3-4.6s1.6-4.7 4.2-4.7c2.5 0 4.1 1.7 4.1 4.5v.6h-6.4v.1c0 1.5 1 2.6 2.4 2.6 1 0 1.8-.5 2.1-1.3h1.8zm-6.3-2.7h4.5c0-1.4-.9-2.3-2.2-2.3-1.3 0-2.2 1-2.3 2.3zM37.8 8.7c1.8 0 2.8 1.1 2.8 3s-1 3-2.8 3h-2.2v-6h2.2zm-1.2 5.2h1.1c1.2 0 2-.8 2-2.1s-.7-2.1-2-2.1h-1.1v4.2zm5.1-1.5c0-1.5.8-2.3 2.1-2.3s2.1.9 2.1 2.3c0 1.5-.8 2.3-2.1 2.3-1.3.1-2.1-.8-2.1-2.3zm3.3 0c0-1-.4-1.5-1.2-1.5-.8 0-1.2.6-1.2 1.5 0 1 .4 1.6 1.2 1.6.8 0 1.2-.6 1.2-1.6zm6.6 2.3h-.9l-.9-3.3h-.1l-.9 3.3h-.9l-1.2-4.5h.9l.8 3.4h.1l.9-3.4h.9l.9 3.4h.1l.8-3.4h.9l-1.4 4.5zm2.3-4.5h.9v.7h.1c.2-.5.7-.8 1.3-.8 1 0 1.6.6 1.6 1.7v2.9h-.9V12c0-.7-.3-1.1-1-1.1s-1.1.4-1.1 1.1v2.6h-.9v-4.4zm5.2-1.8h.9v6.3h-.9V8.4zm2.1 4c0-1.5.8-2.3 2.1-2.3s2.1.9 2.1 2.3c0 1.5-.8 2.3-2.1 2.3-1.3.1-2.1-.8-2.1-2.3zm3.4 0c0-1-.4-1.5-1.2-1.5-.8 0-1.2.6-1.2 1.5 0 1 .4 1.6 1.2 1.6.7 0 1.2-.6 1.2-1.6zm1.8 1c0-.8.6-1.3 1.7-1.3l1.2-.1v-.4c0-.5-.3-.7-.9-.7-.5 0-.8.2-.9.5h-.9c.1-.8.8-1.3 1.8-1.3 1.1 0 1.8.6 1.8 1.5v3.1h-.9v-.6h-.1c-.3.5-.8.7-1.4.7-.8 0-1.4-.6-1.4-1.4zm2.9-.4v-.4l-1.1.1c-.6 0-.9.3-.9.6 0 .4.4.6.8.6.7.1 1.2-.3 1.2-.9zm2-.6c0-1.4.7-2.3 1.9-2.3.6 0 1.1.3 1.4.8h.1V8.4h.9v6.3h-.9V14h-.1c-.3.5-.8.8-1.4.8-1.1 0-1.9-.9-1.9-2.4zm1 0c0 1 .5 1.5 1.2 1.5s1.2-.6 1.2-1.5-.5-1.5-1.2-1.5c-.8 0-1.2.6-1.2 1.5zm6.9 0c0-1.5.8-2.3 2.1-2.3s2.1.9 2.1 2.3c0 1.5-.8 2.3-2.1 2.3-1.3.1-2.1-.8-2.1-2.3zm3.4 0c0-1-.4-1.5-1.2-1.5-.8 0-1.2.6-1.2 1.5 0 1 .4 1.6 1.2 1.6.7 0 1.2-.6 1.2-1.6zm2.1-2.2h.9v.7h.1c.2-.5.7-.8 1.3-.8 1 0 1.6.6 1.6 1.7v2.9h-.9V12c0-.7-.3-1.1-1-1.1s-1.1.4-1.1 1.1v2.6h-.9v-4.4zm8.8-1.1v1.1h1v.8h-1v2.3c0 .5.2.7.6.7h.3v.7h-.5c-1 0-1.4-.3-1.4-1.2V11h-.7v-.7h.7V9.1h1zm2.2-.7h.9v2.5h.1c.2-.5.7-.8 1.4-.8 1 0 1.6.6 1.6 1.7v2.9h-.9V12c0-.7-.3-1.1-1-1.1s-1.1.5-1.1 1.1v2.6h-.9V8.4h-.1zm9.1 5.1c-.2.8-.9 1.3-2 1.3-1.3 0-2.1-.9-2.1-2.3s.8-2.4 2.1-2.4 2 .9 2 2.3v.3h-3.2c0 .8.5 1.3 1.2 1.3.5 0 .9-.2 1.1-.5h.9zm-3.2-1.5h2.3c0-.7-.5-1.2-1.1-1.2-.7.1-1.1.5-1.2 1.2z" fill="#000001"/></g><defs><clipPath id="clip0_2129_11174"><path fill="#fff" d="M0 0h120v40H0z"/></clipPath></defs></svg>
